<?xml version="1.0" encoding="UTF-8"?>
<map version="1.10" tiledversion="1.11.0" orientation="orthogonal" renderorder="right-down" width="30" height="20" tilewidth="64" tileheight="64" infinite="0" nextlayerid="5" nextobjectid="1">
 <tileset firstgid="1" source="towerDefense_tilesheet@2.tsx"/>
 <layer id="1" name="Calque de Tuiles 1" width="30" height="20">
  <data encoding="csv">
194,194,30,194,194,194,194,194,194,194,194,194,194,30,30,9,54,6,7,8,61,1,2,3,61,34,35,35,35,35,
194,221,222,194,144,145,146,30,194,194,30,9,53,53,53,54,6,33,30,31,1,28,25,26,61,34,35,35,35,35,
194,244,245,30,167,168,169,194,194,30,9,54,61,61,61,6,33,30,30,31,24,25,25,26,61,34,35,35,35,35,
194,194,194,194,190,191,192,194,30,9,54,61,61,6,33,30,221,222,9,54,24,25,25,26,61,34,14,15,35,35,
194,194,194,221,222,30,194,194,9,54,61,6,33,30,30,194,244,245,31,61,24,25,25,26,61,34,37,38,35,35,
99,194,99,244,245,194,189,9,54,61,6,33,30,194,30,194,30,9,54,61,28,25,25,26,61,57,58,58,58,58,
189,144,145,194,189,189,189,31,6,33,30,30,221,222,194,30,9,54,61,28,25,25,25,26,61,61,61,61,61,61,
189,167,168,169,189,189,189,32,33,30,194,30,244,245,9,53,54,1,2,25,25,211,212,27,3,61,61,1,2,2,
189,189,191,189,189,189,30,30,30,30,194,194,30,9,54,61,1,28,25,25,25,234,235,25,27,2,2,28,25,25,
189,189,189,189,9,53,10,30,30,221,222,30,9,54,61,1,28,25,25,25,25,25,25,25,25,25,25,25,25,25,
194,30,189,189,32,7,33,30,194,244,245,9,54,61,1,28,25,25,25,25,4,48,48,5,25,25,25,25,25,4,
189,189,194,30,189,30,30,194,194,30,9,54,61,1,28,25,25,25,4,48,51,168,51,47,5,25,25,4,48,49,
30,194,194,194,194,194,30,30,30,9,54,61,1,28,25,25,25,4,49,168,50,51,51,168,24,25,25,27,3,61,
189,30,221,222,30,30,30,9,53,54,61,1,28,25,25,25,25,26,61,51,51,168,51,51,24,25,211,212,26,61,
194,194,244,245,9,53,53,54,61,61,1,28,25,211,212,25,25,26,168,61,1,2,3,168,47,5,234,235,26,61,
194,9,53,53,54,56,56,61,1,2,28,25,25,234,235,4,48,49,61,1,28,25,27,3,50,24,25,25,27,3,
30,31,61,56,216,217,56,56,24,25,25,25,25,25,4,49,50,1,2,28,25,211,212,27,3,24,25,25,25,27,
194,31,56,56,239,240,56,56,24,25,25,25,25,4,49,1,2,28,25,25,25,234,235,25,26,47,5,25,25,25,
30,31,56,216,217,216,217,56,24,25,4,48,48,49,1,28,25,211,212,25,25,25,25,25,27,3,47,5,25,25,
30,31,56,239,240,239,240,56,47,48,49,61,61,1,28,25,25,234,235,25,25,25,25,25,25,27,3,24,25,25
</data>
 </layer>
 <layer id="2" name="Calque de Tuiles 2" width="30" height="20">
  <data encoding="csv">
237,237,237,237,237,237,237,237,237,237,237,237,237,237,237,237,237,237,237,237,0,104,104,104,104,104,104,104,104,104,
237,94,94,94,94,94,237,237,237,237,237,237,237,237,237,237,237,237,237,237,168,104,104,104,104,104,104,104,104,104,
237,94,237,237,237,237,237,94,94,237,237,237,237,237,237,237,237,237,237,237,168,104,104,104,104,104,104,104,104,104,
237,94,237,50,148,237,237,237,94,237,237,237,237,237,237,237,237,237,237,237,168,104,104,104,104,104,104,104,104,104,
237,94,237,94,94,237,237,237,94,237,237,237,237,237,237,237,237,237,237,0,168,104,104,104,104,104,104,104,104,104,
237,94,237,94,94,237,237,237,94,237,237,237,237,237,237,237,147,148,171,168,50,104,104,104,104,104,104,104,104,104,
237,237,237,237,237,237,237,94,94,237,237,237,237,237,237,237,170,171,168,50,117,104,104,104,104,104,104,104,104,104,
237,237,237,237,237,237,237,237,237,237,237,237,237,237,237,237,237,168,50,117,0,104,104,104,104,104,104,104,104,104,
237,237,237,237,237,237,237,237,237,237,237,147,148,237,237,237,237,50,117,0,0,104,104,104,104,104,104,104,104,104,
237,237,237,237,237,237,237,237,237,237,237,170,171,237,237,237,50,117,120,25,25,25,25,25,25,25,25,25,25,25,
237,237,237,237,237,237,237,237,237,168,168,168,168,168,237,50,117,120,0,25,25,25,25,25,25,25,25,25,25,25,
237,237,237,237,237,237,237,237,237,237,94,94,0,51,50,117,0,0,163,163,163,163,163,163,163,163,163,163,163,25,
237,237,237,237,237,237,237,237,237,237,237,168,51,50,117,0,163,163,163,163,163,163,163,163,163,163,163,4,5,25,
237,237,237,237,237,237,237,237,147,148,0,51,50,117,0,0,163,163,163,163,163,163,163,163,163,163,163,27,28,25,
237,237,237,237,237,237,237,237,170,171,51,50,117,25,25,0,163,163,163,163,163,163,163,163,163,163,163,163,163,25,
237,237,237,168,168,168,168,168,168,168,168,117,0,25,25,163,4,5,163,163,163,163,163,163,163,163,163,163,163,25,
237,237,168,168,168,168,168,168,94,94,50,0,0,163,163,163,27,28,163,163,163,163,163,163,163,163,163,163,25,25,
237,237,168,168,168,168,168,168,94,94,50,71,71,71,71,71,71,71,71,71,163,163,163,163,4,5,163,163,25,25,
237,237,168,168,168,168,168,168,94,94,50,50,50,50,50,50,50,50,50,50,71,163,163,163,27,28,163,25,25,25,
237,237,168,168,168,168,168,168,94,94,94,0,94,94,94,94,94,94,94,94,50,71,163,163,163,163,163,25,25,25
</data>
 </layer>
 <layer id="3" name="Calque de Tuiles 3" width="30" height="20">
  <data encoding="csv">
0,0,0,0,0,0,0,0,0,0,0,0,0,0,0,0,0,0,0,0,0,184,0,0,0,0,0,0,0,0,
0,0,0,0,0,0,0,0,0,0,0,0,0,0,0,0,0,0,0,0,0,0,0,0,0,0,0,0,0,0,
0,0,50,50,50,50,50,94,94,0,0,0,0,0,0,0,0,0,0,0,0,184,0,0,0,0,0,0,0,0,
0,0,50,94,94,94,50,0,94,0,0,0,0,0,0,0,0,0,0,0,0,0,0,0,0,0,0,0,0,0,
0,0,50,94,134,94,50,0,94,0,0,0,0,0,0,0,0,0,0,0,0,184,0,0,0,0,0,0,0,0,
0,0,50,0,94,0,50,0,94,0,0,0,0,0,0,0,0,0,94,0,0,0,0,0,0,0,0,0,0,0,
0,0,50,50,50,50,50,94,94,0,0,0,0,0,0,0,0,0,0,0,0,184,0,0,0,0,0,0,0,0,
0,0,0,0,0,0,0,0,0,0,0,0,0,0,0,0,0,0,0,0,0,0,0,0,0,0,0,0,0,0,
0,0,0,0,0,0,0,0,0,0,0,0,0,0,0,0,0,0,0,0,0,184,0,184,0,184,0,184,0,184,
0,0,0,0,0,0,0,0,0,0,0,0,0,0,0,0,0,0,0,0,0,0,0,0,0,0,0,0,0,0,
0,0,0,0,0,0,0,0,0,0,0,0,0,0,0,0,0,0,4,48,5,0,0,25,25,25,0,0,0,0,
0,0,0,0,0,0,0,0,0,0,0,0,0,0,0,0,0,0,26,94,24,0,0,25,25,25,0,0,0,0,
0,0,0,0,0,0,0,0,0,0,0,0,0,0,0,0,0,0,27,2,28,0,0,25,25,25,0,25,25,0,
0,0,0,0,0,0,0,0,0,0,0,0,0,0,0,0,0,0,25,25,0,0,0,0,0,0,25,25,25,0,
0,0,0,0,0,0,0,0,0,0,0,0,0,0,4,48,5,25,25,25,0,0,0,0,0,0,0,25,25,0,
0,0,0,0,0,0,0,0,0,0,0,0,0,0,26,94,24,25,25,0,0,0,0,0,0,0,0,0,0,0,
0,0,0,0,0,0,0,0,0,0,0,0,0,0,27,2,28,25,25,0,0,0,0,0,0,25,25,25,25,0,
0,0,0,0,0,0,0,0,0,0,0,0,0,0,0,0,0,0,0,0,0,0,0,0,25,25,25,25,25,0,
0,0,0,0,0,0,0,0,0,0,0,0,0,0,0,0,0,0,0,0,0,0,0,0,25,25,25,25,25,0,
0,0,0,0,0,0,0,0,0,0,0,0,0,0,0,0,0,0,0,0,0,0,0,0,0,0,0,0,0,0
</data>
 </layer>
 <layer id="4" name="Calque de Tuiles 4" width="30" height="20">
  <data encoding="csv">
0,0,0,0,0,0,0,0,0,0,0,0,0,0,0,0,0,0,0,0,0,0,0,0,0,0,0,0,0,0,
0,0,0,0,0,0,0,0,0,0,0,0,0,0,0,0,0,0,0,0,0,0,0,0,0,0,0,0,0,0,
0,0,0,0,0,0,0,0,0,0,0,0,0,0,0,0,0,0,0,0,0,0,0,0,0,0,0,0,0,0,
0,0,0,0,0,0,0,0,0,0,0,0,0,0,0,0,0,0,0,0,0,0,0,0,0,0,0,0,0,0,
0,0,0,0,0,0,0,0,0,0,0,0,0,0,0,0,274,274,0,0,0,0,0,0,0,0,0,0,0,0,
0,0,0,0,0,0,0,0,0,0,0,0,0,0,0,274,0,0,274,0,0,0,0,0,0,0,0,0,0,0,
0,0,0,0,0,0,0,0,0,0,0,0,0,0,0,274,0,0,274,0,0,0,0,0,0,0,0,0,0,0,
0,0,0,0,0,0,0,0,0,0,0,274,274,0,0,0,274,274,0,0,0,0,0,0,0,0,0,0,0,0,
0,0,0,0,0,0,0,0,0,0,274,0,0,274,0,0,0,0,0,0,0,0,0,0,0,0,0,0,0,0,
0,0,0,0,0,0,0,0,0,0,274,0,0,274,0,0,0,0,275,0,275,0,0,0,0,0,0,0,0,0,
0,0,0,0,0,0,0,0,0,0,0,274,274,0,0,0,0,275,0,0,0,275,0,0,0,0,0,0,0,0,
0,0,0,0,0,0,0,0,0,0,0,0,0,0,0,0,0,0,0,0,0,0,0,0,0,0,0,0,0,0,
0,0,0,0,0,0,0,0,274,274,0,0,0,0,0,0,0,275,0,0,0,275,0,0,0,0,0,0,0,0,
0,0,0,0,0,0,0,274,0,0,274,0,0,0,275,0,275,0,275,0,275,0,0,0,0,0,0,0,0,0,
0,0,0,0,0,0,0,274,0,0,274,0,0,275,0,0,0,275,0,0,0,0,0,0,0,0,0,0,0,0,
0,0,0,0,0,0,0,0,274,274,0,0,0,0,0,0,0,0,0,0,0,0,0,0,0,0,0,0,0,0,
0,0,0,0,0,0,0,0,0,0,0,0,0,275,0,0,0,275,0,0,0,0,0,0,0,0,0,0,0,0,
0,0,0,0,0,0,0,0,0,0,0,0,0,0,275,0,275,0,0,0,0,0,0,0,0,0,0,0,0,0,
0,0,0,0,0,0,0,0,0,0,0,0,0,0,0,0,0,0,0,0,0,0,0,0,0,0,0,0,0,0,
0,0,0,0,0,0,0,0,0,0,0,0,0,0,0,0,0,0,0,0,0,0,0,0,0,0,0,0,0,0
</data>
 </layer>
</map>
